images/svg/track.svg

<svg width="55" height="55" viewBox="0 0 55 55" fill="none" xmlns="http://www.w3.org/2000/svg">
<path d="M20.9168 37.9665C20.6792 39.6329 19.8481 41.1577 18.5761 42.2608C17.3041 43.3639 15.6766 43.9712 13.9925 43.9712C12.3085 43.9712 10.681 43.3639 9.40899 42.2608C8.13697 41.1577 7.30585 39.6329 7.06829 37.9665H5V13.9974C5 13.4677 5.21054 12.9596 5.5853 12.585C5.96006 12.2104 6.46835 12 6.99834 12H34.9752C35.5051 12 36.0134 12.2104 36.3882 12.585C36.763 12.9596 36.9735 13.4677 36.9735 13.9974V17.9923H42.9685L48.9636 26.0938V37.9665H44.8969C44.6594 39.6329 43.8282 41.1577 42.5562 42.2608C41.2842 43.3639 39.6567 43.9712 37.9727 43.9712C36.2886 43.9712 34.6611 43.3639 33.3891 42.2608C32.1171 41.1577 31.286 39.6329 31.0484 37.9665H20.9168ZM32.9768 15.9948H8.99669V32.0741C9.78516 31.2695 10.7564 30.6672 11.8278 30.3186C12.8993 29.9699 14.0391 29.8851 15.1503 30.0714C16.2616 30.2578 17.3113 30.7097 18.2103 31.3888C19.1092 32.0678 19.8307 32.9539 20.3133 33.9716H31.6519C31.9876 33.2665 32.4373 32.6254 32.9768 32.0741V15.9948ZM36.9735 27.9794H44.9669V27.4101L40.9542 21.9871H36.9735V27.9794ZM37.9727 39.9639C38.7679 39.9639 39.5306 39.6481 40.0929 39.086C40.6553 38.524 40.9712 37.7616 40.9712 36.9667C40.9712 36.1719 40.6553 35.4095 40.0929 34.8475C39.5306 34.2854 38.7679 33.9696 37.9727 33.9696C37.1774 33.9696 36.4147 34.2854 35.8524 34.8475C35.2901 35.4095 34.9742 36.1719 34.9742 36.9667C34.9742 37.7616 35.2901 38.524 35.8524 39.086C36.4147 39.6481 37.1774 39.9639 37.9727 39.9639ZM16.9901 36.9677C16.9901 36.5743 16.9125 36.1847 16.7619 35.8212C16.6112 35.4577 16.3905 35.1274 16.1121 34.8492C15.8338 34.5709 15.5033 34.3503 15.1396 34.1997C14.776 34.0491 14.3862 33.9716 13.9925 33.9716C13.5989 33.9716 13.2091 34.0491 12.8454 34.1997C12.4818 34.3503 12.1513 34.5709 11.873 34.8492C11.5946 35.1274 11.3738 35.4577 11.2232 35.8212C11.0726 36.1847 10.995 36.5743 10.995 36.9677C10.995 37.7624 11.3108 38.5244 11.873 39.0863C12.4351 39.6482 13.1976 39.9639 13.9925 39.9639C14.7875 39.9639 15.55 39.6482 16.1121 39.0863C16.6743 38.5244 16.9901 37.7624 16.9901 36.9677Z" fill="black"/>
<path fill-rule="evenodd" clip-rule="evenodd" d="M49 26.1136L42.9699 17.9885H32.9768V32.0773C32.9768 32.0773 32.1322 32.8697 31.4986 33.9678C31.4986 33.9678 30.5021 35.4979 31.0434 37.9909C31.4637 41.5415 34.4779 44.0117 38.084 44C43.9949 43.9808 44.9807 37.9909 44.9807 37.9909H49V26.1136ZM40.9503 36.9792C40.9503 38.6487 39.659 39.9531 37.9887 39.9531C36.3184 39.9531 34.9884 38.6487 34.9884 36.9792C34.9884 35.3097 36.3298 33.969 38.0001 33.969C39.6704 33.969 40.9503 35.3097 40.9503 36.9792ZM36.9692 21.9911H40.9523L44.9728 27.4176V27.9734H36.9692V21.9911Z" fill="#A88768"/>
</svg>

<svg width="55" height="55" fill="none" xmlns="http://www.w3.org/2000/svg"><path d="M20.917 37.967a6.99 6.99 0 0 1-6.925 6.004 6.996 6.996 0 0 1-6.924-6.004H5v-23.97A1.997 1.997 0 0 1 6.998 12h27.977a1.999 1.999 0 0 1 1.998 1.997v3.995h5.995l5.996 8.102v11.873h-4.067a6.99 6.99 0 0 1-6.924 6.004 6.996 6.996 0 0 1-6.925-6.004H20.917Zm12.06-21.972H8.997v16.08a6.993 6.993 0 0 1 9.213-.686 6.99 6.99 0 0 1 2.103 2.583h11.339a7.045 7.045 0 0 1 1.325-1.898v-16.08Zm3.997 11.984h7.993v-.569l-4.013-5.423h-3.98v5.992Zm.999 11.985a2.999 2.999 0 0 0 2.998-2.997 2.996 2.996 0 0 0-2.998-2.997 3 3 0 0 0-2.999 2.997 2.996 2.996 0 0 0 2.999 2.997ZM16.99 36.968a2.996 2.996 0 0 0-4.145-2.768 2.997 2.997 0 1 0 4.145 2.768Z" fill="#000"/><path fill-rule="evenodd" clip-rule="evenodd" d="m49 26.114-6.03-8.126h-9.993v14.09s-.845.792-1.478 1.89c0 0-.997 1.53-.456 4.023.42 3.55 3.435 6.02 7.041 6.009 5.91-.02 6.897-6.01 6.897-6.01H49V26.115Zm-8.05 10.865c0 1.67-1.291 2.974-2.961 2.974s-3-1.304-3-2.974c0-1.67 1.34-3.01 3.011-3.01 1.67 0 2.95 1.34 2.95 3.01Zm-3.98-14.988h3.982l4.02 5.427v.555H36.97v-5.982Z" fill="#A88768"/></svg>
